X: 31322
T: COTILLION No. 25. BATTLE OF NEW ORLEANS tune 2
T: the ATTACK
%R: march, reel
B: Elias Howe "The Musician's Companion" Part 3 1844 p.132 #2
S: http://imslp.org/wiki/The_Musician's_Companion_(Howe,_Elias)
Z: 2015 John Chambers <jc:trillian.mit.edu>
M: 2/4
L: 1/16
K: F
% - - - - - - - - - - - - - - - - - - - - - - - - - - - - -
c'2c'2 |\
a2a2f2f2 | ^f2g2g2g2 | c2c2 dfeg | g2a2c'2c'2 |\
a2a2f2f2 | ^f2g2g2g2 | c2c2 c2de | f4 H|]
A>Bc>d |\
c>dc>B A>Bc>d | c>dc>B A>Bc>d | e>fg>a b>gf>e | f2a2 A>Bc>d |\
c>dc>B A>Bc>d | c>dc>B A>Bc>d | e>fg>a b>gf>e | "^D.C."f4 :|
% - - - - - - - - - - Dance description - - - - - - - - - -
%%begintext align
%% Ladies all balance to the right,
%% all promenade,
%% gentlemen the same.
%%endtext
% - - - - - - - - - - - - - - - - - - - - - - - - - - - - -
%%sep 1 1 300
